X:1
T:Gott Will’s Machen, 87.87
T:Johann Ludwig Steiner (1688-1761)
T:Gott Will’s Machen, 87.87
T:Public Domain
C:Johann Ludwig Steiner (1688-1761)
Z:Public Domain
%%score ( 1 2 ) ( 3 4 )
L:1/8
M:none
K:G
V:1 treble 
V:2 treble 
V:3 bass 
V:4 bass 
V:1
 [DG]2 [DB]2 (AD) D2 | [DG]2 [DB]2 (AD) D2 | D2 (E[Fc]) [GB]2 (A[GB]) | (EF) [GB]2 [FA]4 | %4
 [Fd]2 [Fd]2 [Ed]2 (cB) | [Ec]2 [Ec]2 [Dc]2 (BA) | (Bc)(de) [Gd]2 ([Ac][GB]) | G2 FG G4 |] %8
V:2
 x4 D2 D2 | x4 D2 D2 | d3 x5 | c2 x6 | x6 E2 | x6 F2 | G2 G2 x4 | A3 G G4 |] %8
V:3
 [G,B,]2 [B,,G,]2 [D,G,]2 [D,F,]2 | [B,,G,]2 [G,,G,]2 [D,G,]2 [C,F,]2 | %2
 B,,2 (C,[D,A,]) [E,G,]2 (F,G,) | [A,,A,C]2 ([B,,B,][C,C]) (D,2 [C,C]2) | %4
 [B,,B,D]2 [A,,A,C]2 [^G,,^G,B,]2 [E,G,]2 | A,2 [G,A,]2 [F,A,]2 [D,D]2 | %6
 (G,A,)(B,C) [B,D]2 (F,G,) | [C,E]2 [D,D]2 [G,,B,]4 |] %8
V:4
 x8 | x8 | B,3 x D2 x2 | x D2 D4 x | x8 | A,2 x6 | D2 D2 x D2 x | x8 |] %8

